X: 15634
T: Goddesses
R: reel
M: 4/4
K: Gminor
|:G2 G2 B2 (AG)|A2 A2 c2 (BA)|G2 G2 B2 (AG)|d2 d2 d2 D2:|
|:f2 d2 B2 (Bd)|c2 A2 F2 (GA)|B2 (AG) F2 A2|G2 (GF) G2 D2:|

